templates/main/source/images/Payment_online - color.svg

<?xml version="1.0" encoding="utf-8"?>
<svg width="29px" height="24px" viewbox="0 0 29 24" version="1.1" xmlns:xlink="http://www.w3.org/1999/xlink" xmlns="http://www.w3.org/2000/svg">
  <path d="M18.3414 0.754938C17.1873 -0.0241069 15.6197 0.159999 14.6779 1.19831C13.5108 0.583695 12.0311 0.855566 11.1706 1.91758L0.62764 14.9313C-0.350391 16.1384 -0.165528 17.9174 1.04352 18.8969L6.56947 23.374C7.73539 24.3187 9.43622 24.1745 10.4344 23.0744C11.4861 23.6312 12.7938 23.4635 13.6709 22.6454C14.8676 23.4559 16.5112 23.2262 17.4368 22.0837L27.9797 9.06997C28.9577 7.86294 28.7731 6.08392 27.5641 5.10438L22.0379 0.627325C20.9348 -0.266471 19.3525 -0.188541 18.3414 0.754938ZM26.7705 6.08374C27.4388 6.62496 27.5417 7.60753 27.0002 8.27586L16.4573 21.2896C15.9761 21.8833 15.1433 22.0298 14.4959 21.671C14.4147 21.6311 14.3375 21.5781 14.2649 21.5194L13.9888 21.2954L13.4987 20.8987L12.7149 20.2637L12.2251 19.8667L11.7351 19.4698L8.73896 17.0423C8.07265 16.5026 7.96925 15.5165 8.50896 14.8502L16.8709 4.52918L17.2679 4.03916L17.6646 3.54914L18.5142 2.50099L18.9109 2.01097L19.0522 1.83645C19.1412 1.72674 19.2406 1.63216 19.351 1.556C19.9056 1.15172 20.6859 1.15425 21.2445 1.60669L26.7705 6.08374ZM10.7713 21.793L10.7068 21.7406L10.2168 21.3436L5.2454 17.316C4.57707 16.7745 4.47417 15.7919 5.01388 15.1259L14.8951 2.92922L15.292 2.4392L15.5571 2.11209C15.6015 2.05712 15.6499 2.00541 15.7006 1.95901C16.1914 1.4932 16.9298 1.40341 17.5162 1.729L16.6844 2.75596L16.2875 3.24573L15.8905 3.73576L7.52856 14.0568C6.55053 15.2641 6.73741 17.0448 7.94444 18.0226L10.9408 20.45L11.4306 20.847L11.9206 21.244L12.6613 21.844C12.2545 22.1378 11.7302 22.2159 11.2601 22.0591C11.0876 22.0036 10.9204 21.9136 10.7713 21.793ZM1.83683 17.9167C1.16876 17.3755 1.06561 16.3929 1.60683 15.7246L12.1503 2.71106C12.5692 2.19355 13.2534 2.01423 13.8501 2.21524L4.034 14.3314C3.05597 15.5384 3.24234 17.3157 4.45139 18.2952L9.41115 22.3135C8.85177 22.8437 7.97437 22.8891 7.36304 22.3937L1.83683 17.9167ZM19.8995 8.27873C19.1268 14.4337 15.0439 15.0667 15.0439 15.0667C22.0798 15.6699 21.9873 8.59877 21.9873 8.59877L24.0008 9.15411L21.7797 3.95703L17.4688 8.44644L19.8995 8.27873ZM16.0046 11.348C16.4772 11.7308 16.4573 12.294 16.1317 12.696C15.8063 13.0975 15.2593 13.2342 14.7867 12.8511L13.7512 12.012C13.278 11.629 13.2985 11.0658 13.6238 10.6643C13.9494 10.2623 14.4959 10.1258 14.9688 10.5089L16.0046 11.348ZM15.1577 12.4002C15.3622 12.5659 15.5816 12.5427 15.7249 12.3661C15.8679 12.1893 15.8449 11.9699 15.6407 11.8042L14.5981 10.9599C14.3938 10.7942 14.1741 10.8171 14.0309 10.9939C13.8879 11.1705 13.9108 11.3901 14.1153 11.5556L15.1577 12.4002ZM14.6073 14.5778C14.9329 14.1761 14.9528 13.6129 14.4802 13.2298L13.4444 12.3908C12.9715 12.0077 12.425 12.1441 12.0994 12.5461C11.7741 12.9476 11.7536 13.5108 12.2268 13.8941L13.2623 14.7332C13.7349 15.116 14.2819 14.9793 14.6073 14.5778ZM14.2005 14.2482C14.0572 14.4245 13.8378 14.4477 13.6333 14.282L12.5909 13.4374C12.3864 13.272 12.3635 13.0525 12.5064 12.8757C12.6497 12.699 12.8694 12.676 13.0736 12.8417L14.1162 13.6861C14.3205 13.8518 14.3435 14.0714 14.2005 14.2482ZM11.4913 14.1219C11.4787 14.1837 11.4497 14.2263 11.367 14.3282L10.7748 15.0593L11.2976 15.4828C11.2913 15.3599 11.341 15.1821 11.48 15.0106C11.6439 14.8081 11.8376 14.7037 12.0161 14.6848C12.3642 14.6485 12.6217 14.8086 12.8537 14.9963C13.1344 15.2238 13.2956 15.4144 13.3299 15.7435C13.3505 15.941 13.3021 16.1887 13.0862 16.4552C12.9021 16.6822 12.7178 16.8108 12.4769 16.8567C12.3024 16.8878 12.0999 16.858 11.9491 16.7362C11.8764 16.6772 11.8394 16.6098 11.8298 16.5362C11.8209 16.4658 11.8464 16.3917 11.8969 16.3294C11.9516 16.2621 11.9965 16.2353 12.0557 16.2257C12.1165 16.2149 12.1594 16.2184 12.2643 16.2515C12.4477 16.3085 12.5609 16.2681 12.6774 16.1241C12.7546 16.029 12.7881 15.9415 12.7773 15.8411C12.7627 15.6971 12.6451 15.5761 12.4875 15.4485C12.205 15.2197 11.9816 15.1703 11.799 15.3958C11.6981 15.5203 11.6684 15.6308 11.6875 15.7559C11.6966 15.8086 11.6984 15.856 11.6911 15.9077C11.6832 15.9559 11.6656 15.9957 11.6207 16.0512C11.57 16.1135 11.5155 16.1526 11.4338 16.1612C11.3524 16.1695 11.2664 16.1344 11.1884 16.0711L10.3088 15.3584C10.2429 15.3052 10.1597 15.2379 10.1479 15.1251C10.136 15.0125 10.2032 14.9294 10.2563 14.8637L10.2568 14.8631L10.9584 13.9971C11.0411 13.8952 11.0767 13.8581 11.1345 13.8329C11.2129 13.7993 11.3077 13.8099 11.3927 13.8785C11.4777 13.9474 11.5075 14.0379 11.4913 14.1219Z" id="payment_online" fill="#DD0016" fill-rule="evenodd" stroke="none" />
</svg>

<svg width="29" height="24" xmlns:xlink="http://www.w3.org/1999/xlink" xmlns="http://www.w3.org/2000/svg"><path d="M18.341.755a2.824 2.824 0 00-3.663.443 2.827 2.827 0 00-3.507.72L.628 14.93a2.822 2.822 0 00.416 3.966l5.525 4.477c1.166.945 2.867.8 3.865-.3 1.052.557 2.36.39 3.237-.429a2.82 2.82 0 003.766-.561L27.98 9.07a2.822 2.822 0 00-.416-3.966L22.038.627a2.824 2.824 0 00-3.697.128zm8.43 5.329A1.56 1.56 0 0127 8.276L16.456 21.29a1.558 1.558 0 01-1.961.381 1.249 1.249 0 01-.231-.152l-.276-.224-.49-.396-.784-.635-.49-.397-.49-.397-2.996-2.428a1.563 1.563 0 01-.23-2.192L16.87 4.53l.397-.49.397-.49.85-1.049.396-.49.141-.175c.09-.11.189-.204.299-.28a1.557 1.557 0 011.893.05l5.526 4.478zm-16 15.709l-.064-.052-.49-.397-4.972-4.028a1.559 1.559 0 01-.231-2.19l9.881-12.197.397-.49.265-.327a1.55 1.55 0 011.96-.383l-.833 1.027-.396.49-.398.49-8.361 10.32a2.824 2.824 0 00.415 3.967l2.997 2.427.49.397.49.397.74.6a1.558 1.558 0 01-1.89-.051zm-8.934-3.876a1.56 1.56 0 01-.23-2.192L12.15 2.71a1.552 1.552 0 011.7-.496L4.034 14.331a2.82 2.82 0 00.417 3.964l4.96 4.018c-.56.53-1.437.576-2.048.08l-5.526-4.476zM19.9 8.279c-.773 6.155-4.856 6.788-4.856 6.788 7.036.603 6.943-6.468 6.943-6.468l2.014.555-2.221-5.197-4.311 4.49 2.43-.168zm-3.895 3.069c.472.383.452.946.127 1.348-.326.402-.873.538-1.345.155l-1.036-.839c-.473-.383-.452-.946-.127-1.348.325-.402.872-.538 1.345-.155l1.036.839zm-.847 1.052c.204.166.424.143.567-.034.143-.177.12-.396-.084-.562l-1.043-.844c-.204-.166-.424-.143-.567.034-.143.177-.12.396.084.562l1.043.844zm-.55 2.178c.325-.402.345-.965-.128-1.348l-1.036-.84c-.473-.382-1.019-.246-1.345.156-.325.402-.345.965.128 1.348l1.035.84c.473.382 1.02.245 1.345-.156zm-.408-.33c-.143.177-.362.2-.567.034l-1.042-.845c-.205-.165-.227-.384-.085-.561.144-.177.363-.2.568-.034l1.042.844c.204.166.228.385.085.562zm-2.709-.126c-.012.062-.041.104-.124.206l-.592.731.523.424a.732.732 0 01.182-.472c.164-.203.358-.307.536-.326.348-.037.606.124.838.311.28.228.442.418.476.747.02.198-.028.446-.244.712-.184.227-.368.356-.61.402a.662.662 0 01-.527-.12.304.304 0 01-.12-.2.278.278 0 01.068-.208c.055-.067.1-.094.159-.103.06-.011.103-.008.208.026.184.056.297.016.413-.128.078-.095.111-.182.1-.283-.014-.144-.132-.265-.29-.393-.282-.228-.505-.278-.688-.052-.1.124-.13.235-.111.36.009.053.01.1.003.152a.286.286 0 01-.07.143.264.264 0 01-.187.11.345.345 0 01-.246-.09l-.88-.713c-.065-.053-.148-.12-.16-.233-.012-.113.055-.196.108-.261l.702-.867c.083-.102.119-.139.176-.164.079-.034.174-.023.259.046a.247.247 0 01.098.243z" id="payment_online" fill="#DD0016" fill-rule="evenodd" stroke="none"/></svg>
